; generated by PrusaSlicer 2.4.2+win64 on 2022-06-16 at 02:51:53 UTC


;
;
; 

; external perimeters extrusion width = 0.60mm
; perimeters extrusion width = 0.50mm
; infill extrusion width = 0.50mm
; solid infill extrusion width = 0.50mm
; top infill extrusion width = 0.45mm
; first layer extrusion width = 0.42mm

M73 P0 R92
M73 Q0 S93
M201 X1000 Y1000 Z200 E5000 ; sets maximum accelerations, mm/sec^2
M203 X200 Y200 Z12 E120 ; sets maximum feedrates, mm / sec
M204 P1250 R1250 T1250 ; sets acceleration (P, T) and retract acceleration (R), mm/sec^2
M205 X8.00 Y8.00 Z0.40 E4.50 ; sets the jerk limits, mm/sec
M205 S0 T0 ; sets the minimum extruding and travel feed rate, mm/sec
M107
;TYPE:Custom
M862.3 P "MK3S" ; printer model check
M862.1 P0.4 ; nozzle diameter check
M115 U3.11.0 ; tell printer latest fw version
G90 ; use absolute coordinates
M83 ; extruder relative mode
M104 S230 ; set extruder temp
M140 S85 ; set bed temp
M190 S85 ; wait for bed temp
M109 S230 ; wait for extruder temp
G28 W ; home all without mesh bed level
G80 ; mesh bed leveling
G1 Z0.2 F720
G1 Y-3 F1000 ; go outside print area
G92 E0
G1 X60 E9 F1000 ; intro line
G1 X100 E12.5 F1000 ; intro line
G92 E0
M221 S95

; Don't change E values below. Excessive value can damage the printer.

M907 E538 ; set extruder motor current
G21 ; set units to millimeters
G90 ; use absolute coordinates
M83 ; use relative distances for extrusion
M900 K0.08 ; Filament gcode LA 1.5
M900 K45 ; Filament gcode LA 1.0
M107
;LAYER_CHANGE
;Z:0.2
;HEIGHT:0.2
;BEFORE_LAYER_CHANGE
G92 E0.0
;0.2


G1 E-1 F2100
G1 Z.2 F720
;AFTER_LAYER_CHANGE
;0.2
G1 Z.4
G1 X66.043 Y87.816 F10800
G1 Z.2 F720
G1 E1 F2100
M204 S800
;TYPE:Skirt/Brim
;WIDTH:0.42
G1 F1200
G1 X66.982 Y87.623 E.03008
G1 X183.016 Y87.623 E3.63815
G1 X184.323 Y88.015 E.04278
G1 X185.199 Y89.06 E.04278
G1 X185.393 Y90 E.03008
G1 X185.393 Y120 E.94063
G1 X185.001 Y121.307 E.04278
G1 X183.956 Y122.184 E.04278
G1 X183.016 Y122.377 E.03008
G1 X66.982 Y122.377 E3.63815
G1 X65.675 Y121.985 E.04278
G1 X64.799 Y120.94 E.04278
G1 X64.605 Y120 E.03008
G1 X64.605 Y90 E.94063
G1 X64.997 Y88.693 E.04278
G1 X65.997 Y87.855 E.0409
M204 S1000
; printing object Body1.stl id:0 copy 0
;WIPE_START
G1 F8640
G1 X66.982 Y87.623 E-.23384
G1 X70.084 Y87.623 E-.71616
;WIPE_END
G1 E-.05 F2100
G1 Z.4 F720
G1 X68.103 Y90.787 F10800
G1 Z.2 F720
G1 E1 F2100
M204 S800
;TYPE:Perimeter
M73 P0 R91
G1 F1200
G1 X78.697 Y90.787 E.33218
G1 X78.695 Y99.213 E.26419
G1 X73.05 Y99.213 E.17702
G1 X73.041 Y115.787 E.51967
G1 X176.957 Y115.787 E3.25822
G1 X176.948 Y99.213 E.51967
G1 X171.303 Y99.213 E.17698
G1 X171.313 Y90.787 E.26419
G1 X181.896 Y90.787 E.3318
G1 X181.896 Y119.213 E.89127
G1 X68.102 Y119.213 E3.56791
G1 X68.103 Y90.847 E.88939
M204 S1000
G1 X67.725 Y90.41 F10800
M204 S800
;TYPE:External perimeter
M73 Q0 S92
G1 F1200
G1 X79.074 Y90.41 E.35583
G1 X79.072 Y99.59 E.28783
G1 X73.427 Y99.59 E.17702
G1 X73.418 Y115.41 E.49603
G1 X176.579 Y115.41 E3.23456
G1 X176.571 Y99.59 E.49603
G1 X170.926 Y99.59 E.177
G1 X170.937 Y90.41 E.28783
G1 X182.273 Y90.41 E.35543
G1 X182.273 Y119.59 E.91492
G1 X67.725 Y119.59 E3.59155
G1 X67.725 Y90.47 E.91304
M204 S1000
M73 P1 R91
M73 Q1 S92
G1 X68.124 Y90.443 F10800
;WIPE_START
G1 F8640
G1 X71.84 Y90.448 E-.95
;WIPE_END
G1 E-.05 F2100
G1 Z.4 F720
G1 X181.017 Y90.9 F10800
G1 Z.2 F720
G1 E1 F2100
M204 S800
;TYPE:Solid infill
;WIDTH:0.4214
G1 F1200
G1 X181.613 Y91.496 E.02651
G1 X181.613 Y92.031 E.01684
G1 X180.652 Y91.07 E.04278
G1 X180.117 Y91.07 E.01684
G1 X181.613 Y92.566 E.0666
G1 X181.613 Y93.102 E.01684
G1 X179.581 Y91.07 E.09042
G1 X179.046 Y91.07 E.01684
G1 X181.613 Y93.637 E.11424
G1 X181.613 Y94.172 E.01684
G1 X178.511 Y91.07 E.13806
G1 X177.976 Y91.07 E.01684
G1 X181.613 Y94.707 E.16189
G1 X181.613 Y95.243 E.01684
G1 X177.44 Y91.07 E.18571
G1 X176.905 Y91.07 E.01684
G1 X181.613 Y95.778 E.20953
G1 X181.613 Y96.313 E.01684
G1 X176.37 Y91.07 E.23335
G1 X175.835 Y91.07 E.01684
G1 X181.613 Y96.848 E.25717
G1 X181.613 Y97.384 E.01684
G1 X175.299 Y91.07 E.281
G1 X174.764 Y91.07 E.01684
G1 X181.613 Y97.919 E.30482
G1 X181.613 Y98.454 E.01684
G1 X174.229 Y91.07 E.32864
G1 X173.694 Y91.07 E.01684
G1 X181.613 Y98.989 E.35246
G1 X181.613 Y99.525 E.01684
G1 X173.158 Y91.07 E.37629
G1 X172.623 Y91.07 E.01684
G1 X181.613 Y100.06 E.40011
G1 X181.613 Y100.595 E.01684
G1 X172.088 Y91.07 E.42393
G1 X171.596 Y91.07 E.01548
G1 X171.596 Y91.113 E.00136
G1 X181.613 Y101.13 E.44582
G1 X181.613 Y101.666 E.01684
G1 X171.595 Y91.648 E.44585
G1 X171.595 Y92.183 E.01682
G1 X181.613 Y102.201 E.44588
G1 X181.613 Y102.736 E.01684
G1 X171.594 Y92.717 E.44591
G1 X171.593 Y93.252 E.01682
G1 X181.613 Y103.271 E.44594
G1 X181.613 Y103.807 E.01684
G1 X177.231 Y99.424 E.19504
G1 X177.23 Y98.93 E.01555
G1 X176.737 Y98.93 E.01554
G1 X171.593 Y93.786 E.22894
G1 X171.592 Y94.321 E.01682
G1 X176.201 Y98.93 E.20514
G1 X175.666 Y98.93 E.01684
G1 X171.591 Y94.856 E.18135
G1 X171.591 Y95.39 E.01682
G1 X175.131 Y98.93 E.15755
G1 X174.596 Y98.93 E.01684
G1 X171.59 Y95.925 E.13376
G1 X171.589 Y96.459 E.01682
G1 X174.06 Y98.93 E.10997
G1 X173.525 Y98.93 E.01684
G1 X171.589 Y96.994 E.08617
G1 X171.588 Y97.529 E.01682
G1 X172.99 Y98.93 E.06238
G1 X172.455 Y98.93 E.01684
G1 X171.588 Y98.063 E.03859
G1 X171.587 Y98.598 E.01682
G1 X172.089 Y99.1 E.02234
M204 S1000
;WIPE_START
G1 F8640
G1 X171.587 Y98.598 E-.16394
G1 X171.588 Y98.063 E-.12344
G1 X172.455 Y98.93 E-.28311
G1 X172.99 Y98.93 E-.12359
G1 X172.206 Y98.147 E-.25592
;WIPE_END
G1 E-.05 F2100
G1 Z.4 F720
G1 X177.061 Y99.79 F10800
G1 Z.2 F720
G1 E1 F2100
M204 S800
G1 F1200
G1 X181.613 Y104.342 E.20258
G1 X181.613 Y104.877 E.01684
G1 X177.231 Y100.495 E.19501
G1 X177.232 Y101.031 E.01685
G1 X181.613 Y105.412 E.195
G1 X181.613 Y105.948 E.01684
G1 X177.232 Y101.567 E.19499
G1 X177.232 Y102.102 E.01685
G1 X181.613 Y106.483 E.19497
G1 X181.613 Y107.018 E.01684
G1 X177.232 Y102.638 E.19496
G1 X177.233 Y103.173 E.01685
G1 X181.613 Y107.553 E.19495
G1 X181.613 Y108.089 E.01684
G1 X177.233 Y103.709 E.19493
G1 X177.233 Y104.244 E.01685
G1 X181.613 Y108.624 E.19492
G1 X181.613 Y109.159 E.01684
G1 X177.234 Y104.78 E.19491
G1 X177.234 Y105.315 E.01685
G1 X181.613 Y109.694 E.1949
G1 X181.613 Y110.23 E.01684
G1 X177.234 Y105.851 E.19488
G1 X177.234 Y106.386 E.01685
G1 X181.613 Y110.765 E.19487
G1 X181.613 Y111.3 E.01684
G1 X177.235 Y106.922 E.19486
G1 X177.235 Y107.458 E.01685
G1 X181.613 Y111.835 E.19484
G1 X181.613 Y112.371 E.01684
G1 X177.235 Y107.993 E.19483
G1 X177.236 Y108.529 E.01685
G1 X181.613 Y112.906 E.19482
G1 X181.613 Y113.441 E.01684
G1 X177.236 Y109.064 E.1948
G1 X177.236 Y109.6 E.01685
G1 X181.613 Y113.976 E.19479
G1 X181.613 Y114.512 E.01684
G1 X177.236 Y110.135 E.19478
G1 X177.237 Y110.671 E.01685
G1 X181.613 Y115.047 E.19477
G1 X181.613 Y115.582 E.01684
G1 X177.237 Y111.206 E.19475
G1 X177.237 Y111.742 E.01685
G1 X181.613 Y116.117 E.19474
G1 X181.613 Y116.653 E.01684
G1 X177.238 Y112.277 E.19473
G1 X177.238 Y112.813 E.01685
G1 X181.613 Y117.188 E.19471
G1 X181.613 Y117.723 E.01684
G1 X177.238 Y113.349 E.1947
M73 P1 R90
G1 X177.239 Y113.884 E.01685
G1 X181.613 Y118.258 E.19469
G1 X181.613 Y118.794 E.01684
G1 X177.239 Y114.42 E.19467
G1 X177.239 Y114.955 E.01685
G1 X181.214 Y118.93 E.17692
G1 X180.679 Y118.93 E.01684
G1 X177.239 Y115.491 E.15308
G1 X177.24 Y116.026 E.01685
G1 X180.144 Y118.93 E.12925
G1 X179.609 Y118.93 E.01684
G1 X176.748 Y116.07 E.1273
G1 X176.213 Y116.07 E.01684
G1 X179.073 Y118.93 E.1273
G1 X178.538 Y118.93 E.01684
G1 X175.678 Y116.07 E.1273
G1 X175.142 Y116.07 E.01684
G1 X178.003 Y118.93 E.1273
G1 X177.467 Y118.93 E.01684
G1 X174.607 Y116.07 E.1273
G1 X174.072 Y116.07 E.01684
G1 X176.932 Y118.93 E.1273
G1 X176.397 Y118.93 E.01684
G1 X173.537 Y116.07 E.1273
G1 X173.001 Y116.07 E.01684
G1 X175.862 Y118.93 E.1273
G1 X175.326 Y118.93 E.01684
G1 X172.466 Y116.07 E.1273
G1 X171.931 Y116.07 E.01684
G1 X174.791 Y118.93 E.1273
G1 X174.256 Y118.93 E.01684
G1 X171.396 Y116.07 E.1273
G1 X170.86 Y116.07 E.01684
G1 X173.721 Y118.93 E.1273
G1 X173.185 Y118.93 E.01684
G1 X170.325 Y116.07 E.1273
G1 X169.79 Y116.07 E.01684
G1 X172.65 Y118.93 E.1273
G1 X172.115 Y118.93 E.01684
G1 X169.255 Y116.07 E.1273
G1 X168.719 Y116.07 E.01684
G1 X171.58 Y118.93 E.1273
G1 X171.044 Y118.93 E.01684
G1 X168.184 Y116.07 E.1273
G1 X167.649 Y116.07 E.01684
G1 X170.509 Y118.93 E.1273
G1 X169.974 Y118.93 E.01684
G1 X167.114 Y116.07 E.1273
G1 X166.578 Y116.07 E.01684
G1 X169.439 Y118.93 E.1273
G1 X168.903 Y118.93 E.01684
G1 X166.043 Y116.07 E.1273
G1 X165.508 Y116.07 E.01684
G1 X168.368 Y118.93 E.1273
G1 X167.833 Y118.93 E.01684
G1 X164.973 Y116.07 E.1273
G1 X164.437 Y116.07 E.01684
G1 X167.298 Y118.93 E.1273
G1 X166.762 Y118.93 E.01684
G1 X163.902 Y116.07 E.1273
G1 X163.367 Y116.07 E.01684
G1 X166.227 Y118.93 E.1273
G1 X165.692 Y118.93 E.01684
G1 X162.832 Y116.07 E.1273
G1 X162.296 Y116.07 E.01684
G1 X165.157 Y118.93 E.1273
G1 X164.621 Y118.93 E.01684
G1 X161.761 Y116.07 E.1273
G1 X161.226 Y116.07 E.01684
G1 X164.086 Y118.93 E.1273
G1 X163.551 Y118.93 E.01684
G1 X160.691 Y116.07 E.1273
G1 X160.155 Y116.07 E.01684
G1 X163.016 Y118.93 E.1273
G1 X162.48 Y118.93 E.01684
G1 X159.62 Y116.07 E.1273
G1 X159.085 Y116.07 E.01684
G1 X161.945 Y118.93 E.1273
G1 X161.41 Y118.93 E.01684
G1 X158.55 Y116.07 E.1273
G1 X158.014 Y116.07 E.01684
G1 X160.875 Y118.93 E.1273
G1 X160.339 Y118.93 E.01684
G1 X157.479 Y116.07 E.1273
G1 X156.944 Y116.07 E.01684
G1 X159.804 Y118.93 E.1273
G1 X159.269 Y118.93 E.01684
G1 X156.409 Y116.07 E.1273
G1 X155.873 Y116.07 E.01684
G1 X158.734 Y118.93 E.1273
G1 X158.198 Y118.93 E.01684
G1 X155.338 Y116.07 E.1273
G1 X154.803 Y116.07 E.01684
G1 X157.663 Y118.93 E.1273
G1 X157.128 Y118.93 E.01684
G1 X154.268 Y116.07 E.1273
G1 X153.732 Y116.07 E.01684
G1 X156.593 Y118.93 E.1273
G1 X156.057 Y118.93 E.01684
G1 X153.197 Y116.07 E.1273
G1 X152.662 Y116.07 E.01684
G1 X155.522 Y118.93 E.1273
G1 X154.987 Y118.93 E.01684
G1 X152.127 Y116.07 E.1273
G1 X151.591 Y116.07 E.01684
G1 X154.452 Y118.93 E.1273
G1 X153.916 Y118.93 E.01684
G1 X151.056 Y116.07 E.1273
G1 X150.521 Y116.07 E.01684
G1 X153.381 Y118.93 E.1273
G1 X152.846 Y118.93 E.01684
G1 X149.986 Y116.07 E.1273
G1 X149.45 Y116.07 E.01684
G1 X152.311 Y118.93 E.1273
G1 X151.775 Y118.93 E.01684
G1 X148.915 Y116.07 E.1273
G1 X148.38 Y116.07 E.01684
G1 X151.24 Y118.93 E.1273
G1 X150.705 Y118.93 E.01684
G1 X147.845 Y116.07 E.1273
G1 X147.309 Y116.07 E.01684
G1 X150.17 Y118.93 E.1273
G1 X149.634 Y118.93 E.01684
G1 X146.774 Y116.07 E.1273
G1 X146.239 Y116.07 E.01684
G1 X149.099 Y118.93 E.1273
G1 X148.564 Y118.93 E.01684
G1 X145.704 Y116.07 E.1273
G1 X145.168 Y116.07 E.01684
G1 X148.029 Y118.93 E.1273
G1 X147.493 Y118.93 E.01684
G1 X144.633 Y116.07 E.1273
G1 X144.098 Y116.07 E.01684
G1 X146.958 Y118.93 E.1273
G1 X146.423 Y118.93 E.01684
G1 X143.563 Y116.07 E.1273
G1 X143.027 Y116.07 E.01684
G1 X145.888 Y118.93 E.1273
G1 X145.352 Y118.93 E.01684
G1 X142.492 Y116.07 E.1273
G1 X141.957 Y116.07 E.01684
M73 Q1 S91
G1 X144.817 Y118.93 E.1273
G1 X144.282 Y118.93 E.01684
G1 X141.422 Y116.07 E.1273
G1 X140.886 Y116.07 E.01684
G1 X143.747 Y118.93 E.1273
G1 X143.211 Y118.93 E.01684
G1 X140.351 Y116.07 E.1273
G1 X139.816 Y116.07 E.01684
G1 X142.676 Y118.93 E.1273
G1 X142.141 Y118.93 E.01684
G1 X139.281 Y116.07 E.1273
G1 X138.745 Y116.07 E.01684
G1 X141.606 Y118.93 E.1273
G1 X141.07 Y118.93 E.01684
G1 X138.21 Y116.07 E.1273
G1 X137.675 Y116.07 E.01684
G1 X140.535 Y118.93 E.1273
G1 X140 Y118.93 E.01684
G1 X137.14 Y116.07 E.1273
G1 X136.604 Y116.07 E.01684
G1 X139.465 Y118.93 E.1273
G1 X138.929 Y118.93 E.01684
G1 X136.069 Y116.07 E.1273
G1 X135.534 Y116.07 E.01684
G1 X138.394 Y118.93 E.1273
G1 X137.859 Y118.93 E.01684
G1 X134.998 Y116.07 E.1273
G1 X134.463 Y116.07 E.01684
G1 X137.324 Y118.93 E.1273
G1 X136.788 Y118.93 E.01684
G1 X133.928 Y116.07 E.1273
G1 X133.393 Y116.07 E.01684
G1 X136.253 Y118.93 E.1273
G1 X135.718 Y118.93 E.01684
G1 X132.857 Y116.07 E.1273
G1 X132.322 Y116.07 E.01684
G1 X135.182 Y118.93 E.1273
G1 X134.647 Y118.93 E.01684
G1 X131.787 Y116.07 E.1273
G1 X131.252 Y116.07 E.01684
G1 X134.112 Y118.93 E.1273
G1 X133.577 Y118.93 E.01684
G1 X130.716 Y116.07 E.1273
G1 X130.181 Y116.07 E.01684
G1 X133.041 Y118.93 E.1273
G1 X132.506 Y118.93 E.01684
G1 X129.646 Y116.07 E.1273
G1 X129.111 Y116.07 E.01684
G1 X131.971 Y118.93 E.1273
G1 X131.436 Y118.93 E.01684
G1 X128.575 Y116.07 E.1273
G1 X128.04 Y116.07 E.01684
G1 X130.9 Y118.93 E.1273
G1 X130.365 Y118.93 E.01684
G1 X127.505 Y116.07 E.1273
G1 X126.97 Y116.07 E.01684
G1 X129.83 Y118.93 E.1273
G1 X129.295 Y118.93 E.01684
G1 X126.434 Y116.07 E.1273
G1 X125.899 Y116.07 E.01684
G1 X128.759 Y118.93 E.1273
G1 X128.224 Y118.93 E.01684
G1 X125.364 Y116.07 E.1273
G1 X124.829 Y116.07 E.01684
G1 X127.689 Y118.93 E.1273
G1 X127.154 Y118.93 E.01684
G1 X124.293 Y116.07 E.1273
G1 X123.758 Y116.07 E.01684
G1 X126.618 Y118.93 E.1273
G1 X126.083 Y118.93 E.01684
G1 X123.223 Y116.07 E.1273
G1 X122.688 Y116.07 E.01684
G1 X125.548 Y118.93 E.1273
G1 X125.013 Y118.93 E.01684
G1 X122.152 Y116.07 E.1273
G1 X121.617 Y116.07 E.01684
G1 X124.477 Y118.93 E.1273
G1 X123.942 Y118.93 E.01684
G1 X121.082 Y116.07 E.1273
G1 X120.547 Y116.07 E.01684
G1 X123.407 Y118.93 E.1273
G1 X122.872 Y118.93 E.01684
G1 X120.011 Y116.07 E.1273
G1 X119.476 Y116.07 E.01684
G1 X122.336 Y118.93 E.1273
G1 X121.801 Y118.93 E.01684
M73 P2 R90
G1 X118.941 Y116.07 E.1273
G1 X118.406 Y116.07 E.01684
G1 X121.266 Y118.93 E.1273
G1 X120.731 Y118.93 E.01684
G1 X117.87 Y116.07 E.1273
G1 X117.335 Y116.07 E.01684
G1 X120.195 Y118.93 E.1273
G1 X119.66 Y118.93 E.01684
M73 Q2 S91
G1 X116.8 Y116.07 E.1273
G1 X116.265 Y116.07 E.01684
G1 X119.125 Y118.93 E.1273
G1 X118.59 Y118.93 E.01684
G1 X115.729 Y116.07 E.1273
G1 X115.194 Y116.07 E.01684
G1 X118.054 Y118.93 E.1273
G1 X117.519 Y118.93 E.01684
G1 X114.659 Y116.07 E.1273
G1 X114.124 Y116.07 E.01684
G1 X116.984 Y118.93 E.1273
G1 X116.449 Y118.93 E.01684
G1 X113.588 Y116.07 E.1273
G1 X113.053 Y116.07 E.01684
G1 X115.913 Y118.93 E.1273
G1 X115.378 Y118.93 E.01684
G1 X112.518 Y116.07 E.1273
G1 X111.983 Y116.07 E.01684
G1 X114.843 Y118.93 E.1273
G1 X114.308 Y118.93 E.01684
G1 X111.447 Y116.07 E.1273
G1 X110.912 Y116.07 E.01684
G1 X113.772 Y118.93 E.1273
G1 X113.237 Y118.93 E.01684
G1 X110.377 Y116.07 E.1273
G1 X109.842 Y116.07 E.01684
G1 X112.702 Y118.93 E.1273
G1 X112.167 Y118.93 E.01684
G1 X109.306 Y116.07 E.1273
G1 X108.771 Y116.07 E.01684
G1 X111.631 Y118.93 E.1273
G1 X111.096 Y118.93 E.01684
G1 X108.236 Y116.07 E.1273
G1 X107.701 Y116.07 E.01684
G1 X110.561 Y118.93 E.1273
G1 X110.026 Y118.93 E.01684
G1 X107.165 Y116.07 E.1273
G1 X106.63 Y116.07 E.01684
G1 X109.49 Y118.93 E.1273
G1 X108.955 Y118.93 E.01684
G1 X106.095 Y116.07 E.1273
G1 X105.56 Y116.07 E.01684
G1 X108.42 Y118.93 E.1273
G1 X107.885 Y118.93 E.01684
G1 X105.024 Y116.07 E.1273
G1 X104.489 Y116.07 E.01684
G1 X107.349 Y118.93 E.1273
G1 X106.814 Y118.93 E.01684
G1 X103.954 Y116.07 E.1273
G1 X103.419 Y116.07 E.01684
G1 X106.279 Y118.93 E.1273
G1 X105.744 Y118.93 E.01684
G1 X102.883 Y116.07 E.1273
G1 X102.348 Y116.07 E.01684
G1 X105.208 Y118.93 E.1273
G1 X104.673 Y118.93 E.01684
G1 X101.813 Y116.07 E.1273
G1 X101.278 Y116.07 E.01684
G1 X104.138 Y118.93 E.1273
G1 X103.603 Y118.93 E.01684
G1 X100.742 Y116.07 E.1273
G1 X100.207 Y116.07 E.01684
G1 X103.067 Y118.93 E.1273
G1 X102.532 Y118.93 E.01684
G1 X99.672 Y116.07 E.1273
G1 X99.137 Y116.07 E.01684
G1 X101.997 Y118.93 E.1273
G1 X101.462 Y118.93 E.01684
G1 X98.601 Y116.07 E.1273
G1 X98.066 Y116.07 E.01684
G1 X100.926 Y118.93 E.1273
G1 X100.391 Y118.93 E.01684
G1 X97.531 Y116.07 E.1273
G1 X96.996 Y116.07 E.01684
G1 X99.856 Y118.93 E.1273
G1 X99.321 Y118.93 E.01684
G1 X96.46 Y116.07 E.1273
G1 X95.925 Y116.07 E.01684
G1 X98.785 Y118.93 E.1273
G1 X98.25 Y118.93 E.01684
G1 X95.39 Y116.07 E.1273
G1 X94.855 Y116.07 E.01684
G1 X97.715 Y118.93 E.1273
G1 X97.18 Y118.93 E.01684
G1 X94.319 Y116.07 E.1273
G1 X93.784 Y116.07 E.01684
G1 X96.644 Y118.93 E.1273
G1 X96.109 Y118.93 E.01684
G1 X93.249 Y116.07 E.1273
G1 X92.713 Y116.07 E.01684
G1 X95.574 Y118.93 E.1273
